tools/panel_16/indicator-lunar-satelite.svg

<?xml version="1.0" encoding="UTF-8" standalone="no"?>
<svg
   xmlns:dc="http://purl.org/dc/elements/1.1/"
   xmlns:cc="http://creativecommons.org/ns#"
   xmlns:rdf="http://www.w3.org/1999/02/22-rdf-syntax-ns#"
   xmlns:svg="http://www.w3.org/2000/svg"
   xmlns="http://www.w3.org/2000/svg"
   xmlns:sodipodi="http://sodipodi.sourceforge.net/DTD/sodipodi-0.dtd"
   xmlns:inkscape="http://www.inkscape.org/namespaces/inkscape"
   width="16"
   height="16"
   version="1.1"
   id="svg2"
   inkscape:version="0.91 r13725"
   sodipodi:docname="indicator-lunar-satelite.svg">
  <metadata
     id="metadata13">
    <rdf:RDF>
      <cc:Work
         rdf:about="">
        <dc:format>image/svg+xml</dc:format>
        <dc:type
           rdf:resource="http://purl.org/dc/dcmitype/StillImage" />
      </cc:Work>
    </rdf:RDF>
  </metadata>
  <sodipodi:namedview
     pagecolor="#ffffff"
     bordercolor="#666666"
     borderopacity="1"
     objecttolerance="10"
     gridtolerance="10"
     guidetolerance="10"
     inkscape:pageopacity="0"
     inkscape:pageshadow="2"
     inkscape:window-width="1920"
     inkscape:window-height="1016"
     id="namedview11"
     showgrid="true"
     inkscape:zoom="20.86"
     inkscape:cx="8"
     inkscape:cy="8"
     inkscape:window-x="0"
     inkscape:window-y="34"
     inkscape:window-maximized="1"
     inkscape:current-layer="svg2">
    <inkscape:grid
       type="xygrid"
       id="grid3949" />
  </sodipodi:namedview>
  <defs
     id="defs4">
    <style
       id="current-color-scheme"
       type="text/css">
   .ColorScheme-Text { color:#d3dae3; } .ColorScheme-Highlight { color:#5294e2; }
  </style>
  </defs>
  <g
     id="g7"
     transform="matrix(0.84119722,0,0,0.84197935,1.8419931,0.68425773)">
    <path
       style="color:#d3dae3;fill:currentColor"
       class="ColorScheme-Text"
       d="M 2.9141,0.375 1.5,1.7891 2.9141,3.2031 4.3281,1.7891 Z M 14.006,0.5742 a 1.5,1.5 0 0 0 -1.5,1.5 1.5,1.5 0 0 0 1.5,1.5 1.5,1.5 0 0 0 1.5,-1.5 1.5,1.5 0 0 0 -1.5,-1.5 z m -13.2129,1.9219 -1.416,1.4141 1.416,1.414 1.414,-1.414 z m 4.2422,0 -1.4141,1.4141 1.4141,1.414 1.414,-1.414 z m 6.7657,0.7227 -0.826,0.8261 1.06,1.0606 0.826,-0.8262 C 12.408,4.0412 12.04,3.6722 11.801,3.2188 Z M 8.512,3.2754 2.4767,9.311 c 0.9368,0.366 1.8146,0.941 2.5586,1.685 0.7427,0.745 1.3172,1.62 1.6836,2.557 L 12.754,7.516 Z M 2.9142,4.6172 1.5001,6.0312 2.9142,7.445 4.3282,6.0312 Z M 12.105,9.574 10.691,10.99 12.105,12.404 13.52,10.99 Z M 0.0631,9.832 c -0.2156,0.005 -0.4304,0.022 -0.6426,0.057 a 0.50005,0.50005 0 0 0 -0.2734,0.849 l 6.1152,6.116 A 0.50005,0.50005 0 0 0 6.1119,16.58 C 6.3861,14.884 5.6886,13.039 4.3287,11.676 3.1364,10.484 1.5725,9.8 0.0631,9.832 Z m 9.9219,1.865 -1.414,1.414 1.414,1.414 1.414,-1.414 z m 4.243,0 -1.415,1.414 1.415,1.414 1.414,-1.414 z m -2.122,2.121 -1.414,1.414 1.414,1.414 1.415,-1.414 z"
       id="path9"
       inkscape:connector-curvature="0" />
  </g>
</svg>

<svg xmlns="http://www.w3.org/2000/svg" width="16" height="16" version="1.1">
 <defs>
  <style id="current-color-scheme" type="text/css">
   .ColorScheme-Text { color:#d3dae3; } .ColorScheme-Highlight { color:#5294e2; }
  </style>
 </defs>
 <g>
  <path style="fill:currentColor" class="ColorScheme-Text" d="M 2.9141,0.375 1.5,1.7891 2.9141,3.2031 4.3281,1.7891 Z M 14.006,0.5742 A 1.5,1.5 0 0 0 12.506,2.0742 1.5,1.5 0 0 0 14.006,3.5742 1.5,1.5 0 0 0 15.506,2.0742 1.5,1.5 0 0 0 14.006,0.5742 Z M 0.7931,2.4961 -0.6229,3.9102 0.7931,5.3242 2.2071,3.9102 Z M 5.0353,2.4961 3.6212,3.9102 5.0353,5.3242 6.4493,3.9102 Z M 11.801,3.2188 10.975,4.0449 12.035,5.1055 12.861,4.2793 C 12.408,4.0412 12.04,3.6722 11.801,3.2188 Z M 8.512,3.2754 2.4767,9.311 C 3.4135,9.677 4.2913,10.252 5.0353,10.996 5.778,11.741 6.3525,12.616 6.7189,13.553 L 12.754,7.516 Z M 2.9142,4.6172 1.5001,6.0312 2.9142,7.445 4.3282,6.0312 Z M 12.105,9.574 10.691,10.99 12.105,12.404 13.52,10.99 Z M 0.0631,9.832 C -0.1525,9.837 -0.3673,9.854 -0.5795,9.889 A 0.50005,0.50005 0 0 0 -0.8529,10.738 L 5.2623,16.854 A 0.50005,0.50005 0 0 0 6.1119,16.58 C 6.3861,14.884 5.6886,13.039 4.3287,11.676 3.1364,10.484 1.5725,9.8 0.0631,9.832 Z M 9.985,11.697 8.571,13.111 9.985,14.525 11.399,13.111 Z M 14.228,11.697 12.813,13.111 14.228,14.525 15.642,13.111 Z M 12.106,13.818 10.692,15.232 12.106,16.646 13.521,15.232 Z"/>
 </g>
</svg>
